assets/img/braze_icons/file-search-01.svg

<svg fill="none" height="24" viewBox="0 0 24 24" width="24" xmlns="http://www.w3.org/2000/svg"><g fill="#801ed7"><path clip-rule="evenodd" d="m18 13.5c-2.4853 0-4.5 2.0147-4.5 4.5s2.0147 4.5 4.5 4.5c.8805 0 1.702-.2529 2.3957-.69l.8972.8971c.3905.3905 1.0237.3905 1.4142 0s.3905-1.0237 0-1.4142l-.8971-.8972c.4371-.6937.69-1.5152.69-2.3957 0-2.4853-2.0147-4.5-4.5-4.5zm-2.5 4.5c0-1.3807 1.1193-2.5 2.5-2.5s2.5 1.1193 2.5 2.5-1.1193 2.5-2.5 2.5-2.5-1.1193-2.5-2.5z" fill-rule="evenodd"/><path d="m8.7587 1h6.4826c.805-.000012 1.4693-.000022 2.0105.04419.5621.04593 1.0788.14449 1.5642.39179.7526.38349 1.3645.99541 1.748 1.74806.2473.48533.3459 1.00204.3918 1.56414.0442.54119.0442 1.20554.0442 2.0105v4.15442c0 .4402 0 .6602-.0748.7811-.073.118-.1547.1797-.288.2178-.1368.039-.3781-.0295-.8608-.1663-.5646-.16-1.1605-.2457-1.7764-.2457-3.5899 0-6.5 2.9101-6.5 6.5 0 1.2156.3337 2.3533.9145 3.3264.4209.7053.6314 1.0579.6159 1.2208-.0157.1658-.0678.2576-.2021.356-.132.0968-.4863.0968-1.195.0968h-2.87462c-.80496 0-1.46931 0-2.0105-.0442-.5621-.0459-1.07881-.1445-1.56414-.3918-.75265-.3835-1.36457-.9954-1.74806-1.748-.2473-.4854-.34586-1.0021-.39179-1.5642-.04421-.5412-.0442-1.2055-.04419-2.0105v-10.4826c-.00001-.80496-.00002-1.46933.04419-2.01052.04593-.5621.14449-1.07881.39179-1.56414.38349-.75265.99541-1.36457 1.74806-1.74806.48533-.2473 1.00204-.34586 1.56414-.39179.54119-.044212 1.20556-.044202 2.01052-.04419z"/></g></svg>

<svg width="24" height="24" viewBox="0 0 24 24" fill="none" xmlns="http://www.w3.org/2000/svg">
<path fill-rule="evenodd" clip-rule="evenodd" d="M18 13.5C15.5147 13.5 13.5 15.5147 13.5 18C13.5 20.4853 15.5147 22.5 18 22.5C18.8805 22.5 19.702 22.2471 20.3957 21.81L21.2929 22.7071C21.6834 23.0976 22.3166 23.0976 22.7071 22.7071C23.0976 22.3166 23.0976 21.6834 22.7071 21.2929L21.81 20.3957C22.2471 19.702 22.5 18.8805 22.5 18C22.5 15.5147 20.4853 13.5 18 13.5ZM15.5 18C15.5 16.6193 16.6193 15.5 18 15.5C19.3807 15.5 20.5 16.6193 20.5 18C20.5 19.3807 19.3807 20.5 18 20.5C16.6193 20.5 15.5 19.3807 15.5 18Z" fill="#801ED7"/>
<path d="M8.7587 1H15.2413C16.0463 0.999988 16.7106 0.999978 17.2518 1.04419C17.8139 1.09012 18.3306 1.18868 18.816 1.43598C19.5686 1.81947 20.1805 2.43139 20.564 3.18404C20.8113 3.66937 20.9099 4.18608 20.9558 4.74818C21 5.28937 21 5.95372 21 6.75868V10.9131C21 11.3533 21 11.5733 20.9252 11.6942C20.8522 11.8122 20.7705 11.8739 20.6372 11.912C20.5004 11.951 20.2591 11.8825 19.7764 11.7457C19.2118 11.5857 18.6159 11.5 18 11.5C14.4101 11.5 11.5 14.4101 11.5 18C11.5 19.2156 11.8337 20.3533 12.4145 21.3264C12.8354 22.0317 13.0459 22.3843 13.0304 22.5472C13.0147 22.713 12.9626 22.8048 12.8283 22.9032C12.6963 23 12.342 23 11.6333 23H8.75868C7.95372 23 7.28937 23 6.74818 22.9558C6.18608 22.9099 5.66937 22.8113 5.18404 22.564C4.43139 22.1805 3.81947 21.5686 3.43598 20.816C3.18868 20.3306 3.09012 19.8139 3.04419 19.2518C2.99998 18.7106 2.99999 18.0463 3 17.2413V6.7587C2.99999 5.95374 2.99998 5.28937 3.04419 4.74818C3.09012 4.18608 3.18868 3.66937 3.43598 3.18404C3.81947 2.43139 4.43139 1.81947 5.18404 1.43598C5.66937 1.18868 6.18608 1.09012 6.74818 1.04419C7.28937 0.999978 7.95374 0.999988 8.7587 1Z" fill="#801ED7"/>
</svg>
